germany/municipalities/07232254.svg

<?xml version="1.0" encoding="UTF-8" standalone="no"?>
<!-- Created with Inkscape (http://www.inkscape.org/) -->

<svg
   xmlns:dc="http://purl.org/dc/elements/1.1/"
   xmlns:cc="http://creativecommons.org/ns#"
   xmlns:rdf="http://www.w3.org/1999/02/22-rdf-syntax-ns#"
   xmlns:svg="http://www.w3.org/2000/svg"
   xmlns="http://www.w3.org/2000/svg"
   xmlns:sodipodi="http://sodipodi.sourceforge.net/DTD/sodipodi-0.dtd"
   xmlns:inkscape="http://www.inkscape.org/namespaces/inkscape"
   width="190.93385mm"
   height="209.14957mm"
   viewBox="0 0 190.93385 209.14957"
   version="1.1"
   id="svg7540"
   inkscape:version="0.92.4 (5da689c313, 2019-01-14)"
   sodipodi:docname="DEU Lambertsberg COA.svg">
  <defs
     id="defs7534">
    <inkscape:path-effect
       effect="spiro"
       id="path-effect4875"
       is_visible="true" />
    <inkscape:path-effect
       effect="spiro"
       id="path-effect4780"
       is_visible="true" />
    <inkscape:path-effect
       effect="spiro"
       id="path-effect4646"
       is_visible="true" />
    <inkscape:path-effect
       effect="spiro"
       id="path-effect4646-0"
       is_visible="true" />
  </defs>
  <sodipodi:namedview
     id="base"
     pagecolor="#ffffff"
     bordercolor="#666666"
     borderopacity="1.0"
     inkscape:pageopacity="0.0"
     inkscape:pageshadow="2"
     inkscape:zoom="0.69324392"
     inkscape:cx="360.81988"
     inkscape:cy="395.24327"
     inkscape:document-units="mm"
     inkscape:current-layer="layer1"
     showgrid="false"
     inkscape:window-width="1366"
     inkscape:window-height="745"
     inkscape:window-x="-8"
     inkscape:window-y="-8"
     inkscape:window-maximized="1"
     fit-margin-top="0"
     fit-margin-left="0"
     fit-margin-right="0"
     fit-margin-bottom="0"
     inkscape:object-paths="true"
     inkscape:snap-midpoints="true"
     inkscape:snap-smooth-nodes="true"
     inkscape:snap-nodes="false" />
  <metadata
     id="metadata7537">
    <rdf:RDF>
      <cc:Work
         rdf:about="">
        <dc:format>image/svg+xml</dc:format>
        <dc:type
           rdf:resource="http://purl.org/dc/dcmitype/StillImage" />
        <dc:title />
      </cc:Work>
    </rdf:RDF>
  </metadata>
  <g
     inkscape:label="Ebene 1"
     inkscape:groupmode="layer"
     id="layer1"
     transform="translate(-5.2343369,-5.0629012)">
    <path
       style="fill:#ff0000;fill-opacity:1;fill-rule:evenodd;stroke:none;stroke-width:2.9104166;stroke-linecap:round;stroke-linejoin:round;stroke-miterlimit:4;stroke-dasharray:none;stroke-opacity:1"
       inkscape:connector-curvature="0"
       d="M 194.71298,6.5181047 194.28315,124.09878 c -2.09267,49.45939 -43.43961,88.63079 -93.58189,88.65848 C 50.604075,212.69656 9.2416752,173.5111 7.1193652,124.09878 L 6.6895452,6.5181047 H 100.699 Z"
       id="path10563-0-6-6-5"
       sodipodi:nodetypes="ccccccc" />
    <path
       style="fill:#ffffff;fill-opacity:1;stroke:#000000;stroke-width:5;stroke-linecap:round;stroke-linejoin:round;stroke-miterlimit:4;stroke-dasharray:none;stroke-opacity:1"
       d="M 292.10742 5.5 L 292.10742 410.0625 L 81.814453 650.03516 C 110.36843 686.11473 145.90699 716.50412 186.35352 739.26172 L 360.82031 540.16992 L 535.37695 739.36328 C 575.83767 716.62047 611.37783 686.23579 639.92383 650.14844 L 429.5332 410.0625 L 429.5332 5.5 L 360.81055 5.5 L 292.10742 5.5 z M 506.83984 49.089844 L 493.93359 95.0625 L 447.96094 107.96875 L 493.93359 120.875 L 506.83984 166.84961 L 519.74609 120.875 L 565.71875 107.96875 L 519.74609 95.0625 L 506.83984 49.089844 z M 616.2168 141.63281 L 603.31055 187.60547 L 557.33789 200.51172 L 603.31055 213.41797 L 616.2168 259.39258 L 629.12305 213.41797 L 675.0957 200.51172 L 629.12305 187.60547 L 616.2168 141.63281 z M 506.83984 234.17578 L 493.93359 280.14844 L 447.96094 293.05469 L 493.93359 305.96094 L 506.83984 351.93359 L 519.74609 305.96094 L 565.71875 293.05469 L 519.74609 280.14844 L 506.83984 234.17578 z M 616.2168 326.71875 L 603.31055 372.69141 L 557.33789 385.59766 L 603.31055 398.50391 L 616.2168 444.47656 L 629.12305 398.50391 L 675.0957 385.59766 L 629.12305 372.69141 L 616.2168 326.71875 z "
       transform="matrix(0.26458333,0,0,0.26458333,5.2343369,5.0629012)"
       id="path9152-8" />
    <path
       style="fill:none;fill-rule:evenodd;stroke:#000000;stroke-width:2.9104166;stroke-linecap:round;stroke-linejoin:round;stroke-miterlimit:4;stroke-dasharray:none;stroke-opacity:1"
       inkscape:connector-curvature="0"
       d="M 194.71298,6.5181095 194.28315,124.09878 c -2.09267,49.45939 -43.43961,88.63079 -93.58189,88.65848 C 50.604075,212.69656 9.2416747,173.5111 7.1193647,124.09878 L 6.6895447,6.5181095 H 100.699 Z"
       id="path10563-0-6-6"
       sodipodi:nodetypes="ccccccc" />
    <path
       style="fill:#ffffff;stroke:#000000;stroke-width:1.32291663;stroke-linecap:round;stroke-linejoin:round;stroke-miterlimit:4;stroke-dasharray:none;stroke-opacity:1"
       d="m 52.90849,32.006475 c -1.91417,2.668508 -3.20266,5.782892 -3.73362,9.023739 -0.40257,2.457233 -0.35815,5.053822 0.62219,7.342706 0.66463,1.55177 1.75102,2.920674 3.11143,3.920172 1.36042,-0.999498 2.44681,-2.368402 3.11144,-3.920172 0.98034,-2.288884 1.02476,-4.885473 0.62219,-7.342706 -0.53096,-3.240847 -1.81945,-6.355231 -3.73363,-9.023739 z"
       id="path4644-3"
       inkscape:connector-curvature="0" />
    <rect
       style="fill:#ffffff;stroke:#000000;stroke-width:1.32291663;stroke-linecap:round;stroke-linejoin:round;stroke-miterlimit:4;stroke-dasharray:none;stroke-opacity:1"
       id="rect4667-1"
       width="4.4235125"
       height="84.947586"
       x="50.696735"
       y="49.956909"
       ry="1.244576"
       rx="0.87120324" />
    <rect
       style="fill:#ffffff;stroke:#000000;stroke-width:1.32291663;stroke-linecap:round;stroke-linejoin:round;stroke-miterlimit:4;stroke-dasharray:none;stroke-opacity:1"
       id="rect4735"
       width="5.0201168"
       height="98.827858"
       x="31.664417"
       y="40.44875" />
    <rect
       style="fill:#ffffff;stroke:#000000;stroke-width:1.32291663;stroke-linecap:round;stroke-linejoin:round;stroke-miterlimit:4;stroke-dasharray:none;stroke-opacity:1"
       id="rect4737"
       width="8.5895739"
       height="4.0206513"
       x="29.879688"
       y="137.63733"
       ry="1.2792982" />
    <rect
       style="fill:#ffffff;stroke:#000000;stroke-width:1.32291663;stroke-linecap:round;stroke-linejoin:round;stroke-miterlimit:4;stroke-dasharray:none;stroke-opacity:1"
       id="rect4737-5"
       width="8.5895739"
       height="4.0206513"
       x="29.879688"
       y="48.661777"
       ry="1.2792982" />
    <rect
       style="fill:#ffffff;stroke:#000000;stroke-width:1.32291663;stroke-linecap:round;stroke-linejoin:round;stroke-miterlimit:4;stroke-dasharray:none;stroke-opacity:1"
       id="rect4737-9"
       width="8.5895739"
       height="4.0206513"
       x="29.879688"
       y="39.874229"
       ry="1.2792982" />
    <path
       style="fill:#ffffff;stroke:#000000;stroke-width:1.23135924;stroke-linecap:round;stroke-linejoin:round;stroke-miterlimit:4;stroke-dasharray:none;stroke-opacity:1"
       d="m 34.048282,13.062411 c -7.338909,2.28e-4 -13.288134,5.949684 -13.288079,13.288595 2.3e-4,7.338709 5.949371,13.28785 13.288079,13.288077 1.216737,-0.0044 2.427113,-0.175799 3.597195,-0.509529 -0.0021,-0.09353 -0.0042,-0.187074 -0.0062,-0.280604 -0.01717,-0.786865 -0.03815,-1.592252 -0.322977,-2.325955 -0.205705,-0.529878 -0.541364,-0.992499 -0.952912,-1.384929 -0.755391,0.200713 -1.533507,0.303188 -2.315105,0.304892 -5.02122,-2.64e-4 -9.091649,-4.070731 -9.091953,-9.091952 -2.65e-4,-5.021625 4.070329,-9.092682 9.091953,-9.092985 5.022028,-2.65e-4 9.093251,4.070958 9.092983,9.092985 0.0052,2.652016 -0.682019,4.221908 -3.43028,4.368209 -0.682445,0.02799 -1.359771,-0.145618 -2.042253,-0.145728 -0.527563,-8.5e-5 -1.070684,-0.03009 -1.578716,0.112138 -0.25424,0.07118 -0.500591,0.194365 -0.704349,0.362252 -0.202954,0.167222 -0.393129,0.37447 -0.488342,0.619599 -0.126574,0.325869 -0.152477,0.704591 -0.077,1.045932 0.07605,0.343945 0.270084,0.669475 0.514699,0.922941 0.337529,0.349739 0.785069,0.605221 1.247468,0.754994 0.464839,0.150564 0.976226,0.05841 1.460892,0.120404 0.02792,0.0036 0.05506,0.01363 0.0832,0.01447 1.535731,0.04583 3.148478,0.04004 4.580077,-0.517723 1.088499,-0.424085 2.146539,-1.119235 2.830836,-2.066023 1.146921,-1.58687 1.793814,-3.689943 1.799375,-5.591465 5.6e-5,-7.33911 -5.949481,-13.288649 -13.288592,-13.288594 z"
       id="path4760"
       inkscape:connector-curvature="0"
       sodipodi:nodetypes="ccccccccccccaaaaaaaaaaaccc" />
  </g>
</svg>

<svg xmlns="http://www.w3.org/2000/svg" width="721.64" height="790.487" viewBox="0 0 190.934 209.15"><g transform="translate(-5.234 -5.063)"><path style="fill:red;fill-opacity:1;fill-rule:evenodd;stroke:none;stroke-width:2.9104166;stroke-linecap:round;stroke-linejoin:round;stroke-miterlimit:4;stroke-dasharray:none;stroke-opacity:1" d="m194.713 6.518-.43 117.58c-2.093 49.46-43.44 88.632-93.582 88.66-50.097-.061-91.46-39.247-93.582-88.66L6.69 6.519h94.01z"/><path style="fill:#fff;fill-opacity:1;stroke:#000;stroke-width:5;stroke-linecap:round;stroke-linejoin:round;stroke-miterlimit:4;stroke-dasharray:none;stroke-opacity:1" d="M292.107 5.5v404.563L81.814 650.034c28.554 36.08 64.093 66.47 104.54 89.227L360.82 540.17l174.557 199.193c40.46-22.743 76-53.127 104.547-89.215l-210.39-240.086V5.5H292.106zM506.84 49.09l-12.906 45.972-45.973 12.907 45.973 12.906 12.906 45.975 12.906-45.975 45.973-12.906-45.973-12.906L506.84 49.09zm109.377 92.543-12.906 45.972-45.973 12.907 45.973 12.906 12.906 45.975 12.906-45.975 45.973-12.906-45.973-12.907-12.906-45.972zM506.84 234.176l-12.906 45.972-45.973 12.907 45.973 12.906 12.906 45.973 12.906-45.973 45.973-12.906-45.973-12.907-12.906-45.972zm109.377 92.543L603.31 372.69l-45.973 12.907 45.973 12.906 12.906 45.973 12.906-45.973 45.973-12.906-45.973-12.907-12.906-45.972z" transform="matrix(.26458 0 0 .26458 5.234 5.063)"/><path style="fill:none;fill-rule:evenodd;stroke:#000;stroke-width:2.9104166;stroke-linecap:round;stroke-linejoin:round;stroke-miterlimit:4;stroke-dasharray:none;stroke-opacity:1" d="m194.713 6.518-.43 117.58c-2.093 49.46-43.44 88.632-93.582 88.66-50.097-.061-91.46-39.247-93.582-88.66L6.69 6.519h94.01z"/><path style="fill:#fff;stroke:#000;stroke-width:1.32291663;stroke-linecap:round;stroke-linejoin:round;stroke-miterlimit:4;stroke-dasharray:none;stroke-opacity:1" d="M52.908 32.006a21.517 21.517 0 0 0-3.733 9.024c-.403 2.457-.358 5.054.622 7.343a9.566 9.566 0 0 0 3.111 3.92 9.566 9.566 0 0 0 3.112-3.92c.98-2.289 1.025-4.886.622-7.343a21.517 21.517 0 0 0-3.734-9.024z"/><rect style="fill:#fff;stroke:#000;stroke-width:1.32291663;stroke-linecap:round;stroke-linejoin:round;stroke-miterlimit:4;stroke-dasharray:none;stroke-opacity:1" width="4.424" height="84.948" x="50.697" y="49.957" ry="1.245" rx=".871"/><path style="fill:#fff;stroke:#000;stroke-width:1.32291663;stroke-linecap:round;stroke-linejoin:round;stroke-miterlimit:4;stroke-dasharray:none;stroke-opacity:1" d="M31.664 40.449h5.02v98.828h-5.02z"/><rect style="fill:#fff;stroke:#000;stroke-width:1.32291663;stroke-linecap:round;stroke-linejoin:round;stroke-miterlimit:4;stroke-dasharray:none;stroke-opacity:1" width="8.59" height="4.021" x="29.88" y="137.637" ry="1.279"/><rect style="fill:#fff;stroke:#000;stroke-width:1.32291663;stroke-linecap:round;stroke-linejoin:round;stroke-miterlimit:4;stroke-dasharray:none;stroke-opacity:1" width="8.59" height="4.021" x="29.88" y="48.662" ry="1.279"/><rect style="fill:#fff;stroke:#000;stroke-width:1.32291663;stroke-linecap:round;stroke-linejoin:round;stroke-miterlimit:4;stroke-dasharray:none;stroke-opacity:1" width="8.59" height="4.021" x="29.88" y="39.874" ry="1.279"/><path style="fill:#fff;stroke:#000;stroke-width:1.23135924;stroke-linecap:round;stroke-linejoin:round;stroke-miterlimit:4;stroke-dasharray:none;stroke-opacity:1" d="M34.048 13.062c-7.339 0-13.288 5.95-13.288 13.289 0 7.339 5.95 13.288 13.288 13.288a13.29 13.29 0 0 0 3.597-.51l-.006-.28c-.017-.787-.038-1.592-.323-2.326a3.853 3.853 0 0 0-.953-1.385c-.755.2-1.533.303-2.315.305a9.092 9.092 0 1 1 9.093-9.092c.005 2.652-.682 4.222-3.43 4.368-.682.028-1.36-.145-2.042-.146-.528 0-1.071-.03-1.579.113-.254.07-.5.194-.704.362-.203.167-.393.374-.489.62a1.847 1.847 0 0 0-.077 1.045c.076.344.27.67.515.923.338.35.785.606 1.247.755.465.15.977.059 1.461.12.028.004.055.014.084.015 1.535.046 3.148.04 4.58-.518 1.088-.424 2.146-1.119 2.83-2.066 1.147-1.586 1.794-3.69 1.8-5.591 0-7.34-5.95-13.289-13.289-13.289z"/></g></svg>
